X:3
T:Fantasia VdGS No. 8
C:Richard Deering
%%score [1 2 3 4 5]
L:1/4
M:4/2
K:C
V:1
 A4 e e/e/ e e | f4 e3 ^f/g/ | ^f d =f d ^c3/2 d/ e f/e/ | d3 e/d/ ^c d2 c | d4 z4 | z8 | %6
 z4 z2 a2- | a e a g f e d2 | ^c d2 c d3 A | d e f e d3 e/f/ | g a/g/ f g/f/ e f/e/ d e/d/ | %11
 ^c d3/2 e/ c d4 | z4 z2 a2- | a e a g f4 | e3/2 d/e/^f/ g f d z =f | e d e2 d2 z2 | Z2 | %18
 z4 z f f/e/c/d/ | e f2 e f2 z a | f3/2 g/ e3/2 f/ d3/2 e/ "^\003"^c f- | f/e/ d2 ^c d4 | z8 | %23
 z4 z2 z e | f F/f/ e d g G/g/ f e | a A/a/ g f e f e2 | d A G F E3/2 E/ D C | F3/2 F/ E D A4 | %28
 D4 z4 | z8 | z a g f e3/2 e/ d c | f3/2 f/ e d ^c d2 c | d4 z4 | z8 | z4 z2 z e | %35
 f3/2 f/ e d g3/2 g/ f e | a3/2 a/ g f e d e2 | d2 z f f f e2 | z e a3/2 g/4f/4 g e f3/2 e/4d/4 | %39
 e ^c d e f3/2 g//f// e d | ^c d e2 d4 | Z2 | z4 z2 A2- | A B ^c d/e/ f4 | e4 d f2 f | %46
 g e2 e f d2 d | e ^c2 c d3 =c/_B/ | A4 z4 | z8 | z4 z a3/2 g/a/g/ | %51
 f g3/2 f/g/f/ e f3/2 e/f/e/ | d e3/2 d/e/d/ ^c3/2 B/ A _B | A e2 e f d2 d | e c2 c d B2 B | %55
 e d2 ^c d2 z2 | z g3/2 f/g/f/ e f3/2 e/f/e/ | d e3/2 d/e/d/ ^c2 d f | e d e2 d4 | %59
 z2 z a3/2 g/a/g/ f2 | e2 d2 ^c4 | z a3/2 g/a/g/ f2 a2- | a2 g f e d e2 | d8 |]
V:2
 Z4 | A4 e e/e/ e e | f4 e3 ^c | d f e2 d3/2 e/ f e/d/ | ^c4 d3/2 e/ f3/2 e/4d/4 | %8
 e f e2 d2 z2 | Z2 | z4 z2 a2- | a e a g f e d2 | ^c4 d2 A2 | A4 A2 z A | A4 A4 | Z2 | %18
 z4 z a a/g/e/f/ | g a g2 a2 z f | d3/2 e/ c3/2 d/ _B3/2 c/ A d- | d/^c/ f e2 d2 A2- | %22
 A A A2 A2 _B2 | A8 | z8 | z4 z2 z e | f F/f/ e d g G/g/ f e | a A/a/ g f e f e2 | %28
 d4 e3/2 e/ d c | f3/2 f/ e d ^c> d e c | d4 z4 | z c c _B A3 G | ^F G2 F G d2 g | e3 f f3 g | %34
 a3/2 a/ g f e f e2 | d2 z2 z4 | z8 | z2 z d d d ^c2 | z c f3/2 e/4d/4 e ^c d2 | %39
 ^c e f g a2 g f- | f/e/ d2 ^c d4 | Z2 | z2 A3 B ^c d/e/ | f2 e2 d2 d2- | d2 ^c2 d2 z2 | %46
 Z2 | z a3/2 g/a/g/ f g3/2 f/g/f/ | e f3/2 e/f/e/ d e3/2 d/e/d/ | ^c3/2 B/ A _B A =c2 c | %51
 d B2 B ^c A2 A | _B G2 G A f2 e/d/ | ^c c2 c d B2 B | c A2 A B ^G2 G | A/G/F/G/ A2 A2 z c | %56
 d B2 B c A2 A | _B G2 G A2 A d | ^c d2 c d2 z a- | a/g/a/g/ f2 e2 d2 | A2 F3/2 G/ A2 z2 | %61
 z f3/2 e/f/e/ d2 d2 | ^c2 d2 A4 | A8 |]
V:3 clef=alto
 z2 A3 E A G | F E D2 ^C B, C2 | D3 F E3 A/G/ | F2 G2 E F E2 | ^F2 =F E/D/ ^C4 | D4 z4 | z4 D4 | %7
 A A/A/ A A _B4 | A3 A/G/ F3 G | A4 F2 _B A | G F/E/ F E/D/ A>G F G/F/ | E F E2 F3 G | %12
 A4 A3/2 G/ F G | A4 A4- | A2 A,2 A,2 z D | E ^F E2 F2 z A | A A G2 A2 z A | %17
 F3/2 G/ E3/2 F/ D3/2 E/ C F- | F/E/ D2 ^C D F F A | G F c2 F2 z F | %20
 _B3/2 A/4G/4 A3/2 G/4F/4 G3/2 F/4E/4 F3/2 E/4D/4 | A4 D2 F2- | F F E2 A2 G2- | G2 F2 E4 | %24
 A3/2 A/ G F E3/2 E/ D C | F3/2 F/ E D A2 A,2 | A,4 G,4 | A,2 B,2 ^C D2 C | F3 _B G3 c | %29
 A F G2 A F E2 | D4 z4 | z8 | z2 z A _B _B,/B/ A G | c C/c/ _B A d D/d/ c B | A2 =B2 ^c d2 c | %35
 d2 z D G,4 | A,2 E F/G/ A4 | ^F2 z A A A A2 | z A A2 G A F2 | E A/G/ F E/D/ C2 _B,/C/ D | %40
 E F/G/ A E ^F4 | z2 D3 E F G/A/ | _B4 A2 G3/2 F/ | E8 | A3 G F E F G | A4 D2 F3/2 E/ | %46
 D E E3/2 D/ C D D3/2 C/ | _B, A, z2 z4 | z c2 c d _B2 B | c A2 A _B G2 G | %50
 A2 A G/F/ E F3/2 E/F/E/ | D E3/2 D/E/D/ ^C D3/2 =C/D/C/ | _B, C G, G/F/ E A2 G/F/ | E2 z2 z4 | %54
 z8 | z4 z A3/2 G/A/G/ | F G G2 G F2 F | G E E2 E2 F A- | A/G/ F E2 ^F A3/2 G/ =F | A4 E2 F2 | %60
 z4 z A3/2 G/A/G/ | F2 A2 A4 | A3 D E2 A3/2 G/ | ^F8 |]
V:4 clef=alto
 Z4 | z2 A3 E A G | F E D2 ^C3/2 D/ E2 | D D2 ^C F3/2 E/ D =C/_B,/ | A,4 z4 | %8
 z4 z D2 E | F E D E F2 D2 | E2 A,2 A,4 | z4 A,4 | E E/E/ E E F4 | E4 D3 E/D/ | ^C4 D2 z D | %15
 ^C B, C2 D2 z =C | F F E2 F2 z F | D3/2 E/ C3/2 D/ _B,3/2 C/ A, D- | D/^C/ F E2 D2 z2 | Z2 | %21
 z4 z2 D2- | D D ^C2 F2 E D | ^C2 D4 C2 | D4 G,4 | A,2 B,2 ^C D2 C | D2 D,2 E,4 | F,2 G,2 A,4 | %28
 z8 | z4 z2 z E | F F,/F/ E D G G,/G/ F E | A A,/A/ G F E4 | D/C/ _B, A, D D2 z2 | z8 | %34
 z4 z2 z E | A3/2 A/ G F E3/2 E/ D C | F3/2 F/ E D ^C D2 C | D2 z D D D A,2 | z A, F,2 E, A, D,2 | %39
 A,2 D C F,2 G, D, | A,4 D4 | A,2 A, _B,/C/ D3 C | _B, C D E F2 E D | ^C8 | ^C D E2 z4 | %45
 z4 z A2 G | _B G2 G A F2 F | G E2 E F/G/A/G/ F E/D/ | ^C A,2 A, _B, G,2 G, | %49
 A, F,2 F, G, E,2 E, | A,3/2 G,/ F, G, A,2 z2 | Z2 | z A3/2 G/A/G/ F G3/2 F/G/F/ | %54
 E F3/2 E/F/E/ D E3/2 D/E/D/ | ^C D A,2 D2 z2 | Z2 | z2 z A, D F3/2 E/ D | E2 D2 ^C2 D2 | %60
 z4 z F3/2 E/F/E/ | D2 ^C2 D A, F2- | F2 E D ^C D2 C | D8 |]
V:5 clef=bass
[L:1/8]
 Z2 | D,8 A,2 A,A, A,2 A,2 | _B,8 A,G,F,G, A,2 A,,2 | D,6 C,_B,, A,,8 | %5
 D,C,D,E, F,E,F,G, A,G,A,B, CB,A,G, | F,2 E,D, A,4 D,8 | z16 | z8 z4 D4- | %9
 D2 A,2 D2 C2 _B,2 A,2 G,2 F,2 | E,4 D,4 ^C,4 D,4 | A,8 D,2 F,3 E, D,2 | ^C,8 D,3 E, F,2 E,D, | %13
 A,4 A,,4 D,8 | A,,8 D,4 z2 D,2 | A,,4 A,,4 D,4 z2 F,2 | F,2 F,2 C4 F,4 z2 F,2 | %17
 _B,3 A,/G,/ A,3 G,/F,/ G,3 F,/E,/ F,3 E,/D,/ | A,8 D,4 z4 | Z2 | z8 z4 D,4- | %22
 D,2 D,2 A,4 F,4 G,4 | A,16 | D,8 E,8 | F,4 G,4 A,8 | D,8 z8 | z8 z4 z2 A,2 | %28
 _B,2 _B,,B, A,2 G,2 C2 C,C B,2 A,2 | D2 D,D C2 _B,2 A,8 | D,6 D,2 E,6 E,2 | F,4 G,4 A,8 | %32
 D,6 D,2 G,3 G, F,2 E,2 | A,3 A, G,2 F,2 _B,3 B, A,2 G,2 | F,4 G,4 A,8 | D,6 C,B,, E,6 F,E, | %36
 D,E, F,2 G,4 A,4 A,,4 | D,8 z8 | Z2 | z8 z4 D,4- | D,2 E,2 F,2 G,A, _B,6 A,2 | %42
 G,8 F,4 G,4 | A,16 | A,,8 z8 | z8 z2 D3 CDC | _B,2 C3 B,CB, A,2 B,3 A,B,A, | %47
 G,2 A,3 G,A,G, F,2 E,D, F,2 G,2 | A,4 z4 z8 | z16 | z8 z2 A,4 A,2 | _B,2 G,4 G,2 A,2 F,4 F,2 | %52
 G,2 E,4 E,2 A,3 G, F,2 G,2 | A,8 z8 | z16 | z8 z2 F3 EFE | D2 E3 DED C2 D3 CDC | %57
 _B,2 C3 B,CB, A,3 G, F,2 E,D, | A,8 D,8 | ^C,4 D,4 A,4 D,2 D2- | DCDC _B,4 A,8 | %61
 D,4 A,,4 D,3 E, F,2 G,2 | A,8 A,,8 | D,16 |]

%*******************Blank page for back inside cover**************
%%footer ""
%%newpage
%%vskip 30cm

%*******************Blank page for back cover**************
%%newpage
%%vskip 30cm
